src/icons/vida.svg

<svg viewBox="0 0 14 12" fill="none"  >
<path d="M14 6.00001C14 6.13262 13.9473 6.25979 13.8536 6.35356C13.7598 6.44733 13.6326 6.50001 13.5 6.50001H11.8088L9.4475 11.2238C9.40593 11.3068 9.34204 11.3767 9.263 11.4255C9.18396 11.4743 9.09289 11.5001 9 11.5H8.975C8.87801 11.4952 8.78452 11.4623 8.70594 11.4052C8.62736 11.3482 8.5671 11.2695 8.5325 11.1788L4.95937 1.79751L2.955 6.20688C2.91529 6.29426 2.85127 6.36836 2.77059 6.42034C2.68991 6.47231 2.59597 6.49997 2.5 6.50001H0.5C0.367392 6.50001 0.240215 6.44733 0.146447 6.35356C0.0526784 6.25979 0 6.13262 0 6.00001C0 5.8674 0.0526784 5.74022 0.146447 5.64646C0.240215 5.55269 0.367392 5.50001 0.5 5.50001H2.17812L4.545 0.293134C4.5858 0.203281 4.65229 0.127513 4.73607 0.075371C4.81985 0.0232294 4.91719 -0.00295337 5.01583 0.000120652C5.11447 0.00319467 5.20999 0.035388 5.29036 0.0926457C5.37074 0.149903 5.43237 0.229665 5.4675 0.321884L9.06188 9.75938L11.0525 5.77751C11.0939 5.69421 11.1577 5.6241 11.2368 5.57508C11.3158 5.52606 11.407 5.50006 11.5 5.50001H13.5C13.6326 5.50001 13.7598 5.55269 13.8536 5.64646C13.9473 5.74022 14 5.8674 14 6.00001Z" fill="#BFDE42"/>
</svg>

<svg  width="14" height="12" fill="none"><path fill="#BFDE42" d="M14 6a.5.5 0 0 1-.5.5h-1.691l-2.361 4.724A.5.5 0 0 1 9 11.5h-.025a.5.5 0 0 1-.442-.321L4.959 1.798 2.955 6.207A.5.5 0 0 1 2.5 6.5h-2a.5.5 0 0 1 0-1h1.678L4.545.293a.5.5 0 0 1 .923.029l3.594 9.437 1.99-3.981A.5.5 0 0 1 11.5 5.5h2a.5.5 0 0 1 .5.5"/></svg>
